CSETWebApi/CSETWeb_Api/CSETWeb_ApiCore/Diagram/src/main/webapp/img/lib/mscae/Event_Hubs.svg

<svg xmlns="http://www.w3.org/2000/svg" xmlns:xlink="http://www.w3.org/1999/xlink" viewBox="-163 237 29 30" width="29" height="30"><g fill="#b8d432"><use xlink:href="#B"/><use xlink:href="#B" x="7" y="3"/><use xlink:href="#B" y="6"/><use xlink:href="#C"/></g><path d="M-134.5 237h-28a.47.47 0 0 0-.5.5v6a.47.47 0 0 0 .5.5h3a.47.47 0 0 0 .5-.5V241h21v2.5c0 .3.2.5.6.5h2.9a.47.47 0 0 0 .5-.5v-6a.47.47 0 0 0-.5-.5zm0 23.1h-2.9a.47.47 0 0 0-.5.5v2.4H-159v-2.5c0-.3-.2-.5-.6-.5h-2.9c-.3 0-.5.2-.5.6v5.9a.47.47 0 0 0 .5.5h28a.47.47 0 0 0 .5-.5v-5.9a.47.47 0 0 0-.5-.5z" fill="#0072c6"/><g fill="#b8d432"><use xlink:href="#C" y="6"/><use xlink:href="#C" y="12"/></g><defs ><path id="B" d="M-145 250.5a.47.47 0 0 1-.5.5h-3.9a.47.47 0 0 1-.5-.5v-2.9a.47.47 0 0 1 .5-.5h3.9a.47.47 0 0 1 .5.5v2.9z"/><path id="C" d="M-152 247.5a.47.47 0 0 1-.5.5h-4a.47.47 0 0 1-.5-.5v-3a.47.47 0 0 1 .5-.5h3.9c.4 0 .6.2.6.5v3z"/></defs></svg>

<?xml version="1.0" encoding="UTF-8" standalone="no"?>
<svg
   xmlns:dc="http://purl.org/dc/elements/1.1/"
   xmlns:cc="http://creativecommons.org/ns#"
   xmlns:rdf="http://www.w3.org/1999/02/22-rdf-syntax-ns#"
   xmlns:svg="http://www.w3.org/2000/svg"
   xmlns="http://www.w3.org/2000/svg"
   xmlns:sodipodi="http://sodipodi.sourceforge.net/DTD/sodipodi-0.dtd"
   xmlns:inkscape="http://www.inkscape.org/namespaces/inkscape"
   version="1.1"
   id="Layer_1"
   x="0px"
   y="0px"
   viewBox="-163 237 29 30"
   enable-background="new -163 237 32 32"
   xml:space="preserve"
   inkscape:version="0.91 r13725"
   sodipodi:docname="Azure Event Hubs_COLOR.svg"
   width="29"
   height="30"><metadata
     id="metadata23"><rdf:RDF><cc:Work
         rdf:about=""><dc:format>image/svg+xml</dc:format><dc:type
           rdf:resource="http://purl.org/dc/dcmitype/StillImage" /><dc:title></dc:title></cc:Work></rdf:RDF></metadata><defs
     id="defs21" /><sodipodi:namedview
     pagecolor="#ffffff"
     bordercolor="#666666"
     borderopacity="1"
     objecttolerance="10"
     gridtolerance="10"
     guidetolerance="10"
     inkscape:pageopacity="0"
     inkscape:pageshadow="2"
     inkscape:window-width="1920"
     inkscape:window-height="1018"
     id="namedview19"
     showgrid="false"
     fit-margin-top="0"
     fit-margin-left="0"
     fit-margin-right="0"
     fit-margin-bottom="0"
     inkscape:zoom="16.193277"
     inkscape:cx="16.044344"
     inkscape:cy="11.262184"
     inkscape:window-x="-8"
     inkscape:window-y="-8"
     inkscape:window-maximized="1"
     inkscape:current-layer="Layer_1" /><path
     d="M -145,250.5 C -145,250.8 -145.2,251 -145.5,251 L -149.4,251 C -149.7,251 -149.9,250.8 -149.9,250.5 L -149.9,247.6 C -149.9,247.3 -149.7,247.1 -149.4,247.1 L -145.5,247.1 C -145.2,247.1 -145,247.3 -145,247.6 L -145,250.5 Z"
     id="path3"
     inkscape:connector-curvature="0"
     style="fill:#b8d432" /><path
     d="M -138,253.5 C -138,253.8 -138.2,254 -138.5,254 L -142.4,254 C -142.7,254 -142.9,253.8 -142.9,253.5 L -142.9,250.6 C -142.9,250.3 -142.7,250.1 -142.4,250.1 L -138.5,250.1 C -138.2,250.1 -138,250.3 -138,250.6 L -138,253.5 Z"
     id="path5"
     inkscape:connector-curvature="0"
     style="fill:#b8d432" /><path
     d="M -145,256.5 C -145,256.8 -145.2,257 -145.5,257 L -149.4,257 C -149.7,257 -149.9,256.8 -149.9,256.5 L -149.9,253.6 C -149.9,253.3 -149.7,253.1 -149.4,253.1 L -145.5,253.1 C -145.2,253.1 -145,253.3 -145,253.6 L -145,256.5 Z"
     id="path7"
     inkscape:connector-curvature="0"
     style="fill:#b8d432" /><path
     d="M -152,247.5 C -152,247.8 -152.2,248 -152.5,248 L -156.5,248 C -156.8,248 -157,247.8 -157,247.5 L -157,244.5 C -157,244.2 -156.8,244 -156.5,244 L -152.6,244 C -152.2,244 -152,244.2 -152,244.5 L -152,247.5 Z"
     id="path9"
     inkscape:connector-curvature="0"
     style="fill:#b8d432" /><path
     d="M -134.5,237 -134.5,237 -137.5,237 -159.6,237 -161.5,237 -162.5,237 C -162.8,237 -163,237.2 -163,237.5 L -163,243.5 C -163,243.8 -162.8,244 -162.5,244 L -159.5,244 C -159.2,244 -159,243.8 -159,243.5 L -159,241 -138,241 -138,243.5 C -138,243.8 -137.8,244 -137.4,244 L -134.5,244 C -134.2,244 -134,243.8 -134,243.5 L -134,240.5 -134,237.5 C -134,237.2 -134.2,237 -134.5,237 Z"
     id="path11"
     inkscape:connector-curvature="0"
     style="fill:#0072c6" /><path
     d="M -134.5,260.1 -137.4,260.1 C -137.7,260.1 -137.9,260.3 -137.9,260.6 L -137.9,263 -159,263 -159,260.5 C -159,260.2 -159.2,260 -159.6,260 L -162.5,260 C -162.8,260 -163,260.2 -163,260.6 L -163,266.5 C -163,266.8 -162.8,267 -162.5,267 L -161.5,267 -159.5,267 -137.4,267 -134.6,267 -134.5,267 C -134.2,267 -134,266.8 -134,266.5 L -134,260.6 C -134,260.3 -134.2,260.1 -134.5,260.1 Z"
     id="path13"
     inkscape:connector-curvature="0"
     style="fill:#0072c6" /><path
     d="M -152,253.5 C -152,253.8 -152.2,254 -152.5,254 L -156.5,254 C -156.8,254 -157,253.8 -157,253.5 L -157,250.5 C -157,250.2 -156.8,250 -156.5,250 L -152.6,250 C -152.2,250 -152,250.2 -152,250.5 L -152,253.5 Z"
     id="path15"
     inkscape:connector-curvature="0"
     style="fill:#b8d432" /><path
     d="M -152,259.5 C -152,259.8 -152.2,260 -152.5,260 L -156.5,260 C -156.8,260 -157,259.8 -157,259.5 L -157,256.5 C -157,256.2 -156.8,256 -156.5,256 L -152.6,256 C -152.2,256 -152,256.2 -152,256.5 L -152,259.5 Z"
     id="path17"
     inkscape:connector-curvature="0"
     style="fill:#b8d432" /></svg>
